src/images/icons/feature-encrypted.svg

<svg width="134px" height="134px" viewBox="0 0 134 134" xmlns="http://www.w3.org/2000/svg">
    <g stroke="none" stroke-width="1" fill="none" fill-rule="evenodd" opacity="0.616815476">
        <path d="M67.5,43 C75.1636603,43 80.0695096,46.8939515 81.7728984,54.3311409 L81.875,54.7951847 L81.875,61.9473684 L82.5,61.9473684 C83.8807119,61.9473684 85,63.0784385 85,64.4736842 L85,88.4736842 C85,89.8689299 83.8807119,91 82.5,91 L71.562,91 L71.5625,88.72 L75.3125,87.7728768 L75.3125,85.5054136 L73.75,84.5581053 L73.75,83.7894737 L75.9375,83.7894737 L75.9381388,82.8021439 C76.4769482,82.6616955 76.875,82.1672957 76.875,81.5789474 C76.875,80.8813245 76.3153559,80.3157895 75.625,80.3157895 C74.9346441,80.3157895 74.375,80.8813245 74.375,81.5789474 C74.375,82.1222488 74.7144315,82.5854372 75.19069,82.7637754 L75.312488,82.8023071 L75.3125,83.1578947 L73.125,83.1578947 L73.125,84.9156391 L74.6875,85.8629474 L74.6875,87.2793684 L70.9375,88.2271232 L70.937,91 L67.812,91 L67.8125,87.1322105 L70,86.5013583 L70,85.3684211 L67.5,85.3684211 L67.5,83.7591579 L70.625,83.4436803 L70.6256388,82.8021439 C71.1644482,82.6616955 71.5625,82.1672957 71.5625,81.5789474 C71.5625,80.8813245 71.0028559,80.3157895 70.3125,80.3157895 C69.6221441,80.3157895 69.0625,80.8813245 69.0625,81.5789474 C69.0625,82.1222488 69.4019315,82.5854372 69.87819,82.7637754 L69.999988,82.8023071 L70,82.8717895 L66.875,83.1878987 L66.875,86 L69.375,86 L69.375,86.0244211 L67.1875,86.6565364 L67.187,91 L63.437,91 L63.4375,87.0526316 L64.6875,86.1052632 L64.6875,83.8587022 L63.4375,83.5425263 L63.4381388,83.4337229 C63.9769482,83.2932744 64.375,82.7988747 64.375,82.2105263 C64.375,81.5129035 63.8153559,80.9473684 63.125,80.9473684 C62.4346441,80.9473684 61.875,81.5129035 61.875,82.2105263 C61.875,82.7538277 62.2144315,83.2170161 62.69069,83.3953544 L62.812488,83.4338861 L62.8125,84.0360347 L64.0625,84.3522105 L64.0625,85.7894737 L62.8125,86.7368421 L62.812,91 L60.312,91 L60.3125,86.6535382 L56.875,85.7061053 L56.8756388,83.4337229 C57.4144482,83.2932744 57.8125,82.7988747 57.8125,82.2105263 C57.8125,81.5129035 57.2528559,80.9473684 56.5625,80.9473684 C55.8721441,80.9473684 55.3125,81.5129035 55.3125,82.2105263 C55.3125,82.7538277 55.6519315,83.2170161 56.12819,83.3953544 L56.249988,83.4338861 L56.25,86.1885671 L59.6875,87.136 L59.687,91 L52.5,91 C51.1192881,91 50,89.8689299 50,88.4736842 L50,64.4736842 C50,63.0784385 51.1192881,61.9473684 52.5,61.9473684 L53.125,61.9473684 L53.125,54.7951847 L53.2271016,54.3311409 C54.9304904,46.8939515 59.8363397,43 67.5,43 Z M63.125,81.5789474 C63.470178,81.5789474 63.75,81.8617149 63.75,82.2105263 C63.75,82.5593377 63.470178,82.8421053 63.125,82.8421053 C62.779822,82.8421053 62.5,82.5593377 62.5,82.2105263 C62.5,81.8617149 62.779822,81.5789474 63.125,81.5789474 Z M56.5625,81.5789474 C56.907678,81.5789474 57.1875,81.8617149 57.1875,82.2105263 C57.1875,82.5593377 56.907678,82.8421053 56.5625,82.8421053 C56.217322,82.8421053 55.9375,82.5593377 55.9375,82.2105263 C55.9375,81.8617149 56.217322,81.5789474 56.5625,81.5789474 Z M75.625,80.9473684 C75.970178,80.9473684 76.25,81.2301359 76.25,81.5789474 C76.25,81.9277588 75.970178,82.2105263 75.625,82.2105263 C75.279822,82.2105263 75,81.9277588 75,81.5789474 C75,81.2301359 75.279822,80.9473684 75.625,80.9473684 Z M70.3125,80.9473684 C70.657678,80.9473684 70.9375,81.2301359 70.9375,81.5789474 C70.9375,81.9277588 70.657678,82.2105263 70.3125,82.2105263 C69.967322,82.2105263 69.6875,81.9277588 69.6875,81.5789474 C69.6875,81.2301359 69.967322,80.9473684 70.3125,80.9473684 Z M67,71.5 C64.5147186,71.5 62.5,73.5147186 62.5,76 C62.5,78.4852814 64.5147186,80.5 67,80.5 C69.4852814,80.5 71.5,78.4852814 71.5,76 C71.5,73.5147186 69.4852814,71.5 67,71.5 Z M67,72.5 C68.9329966,72.5 70.5,74.0670034 70.5,76 C70.5,77.9329966 68.9329966,79.5 67,79.5 C65.0670034,79.5 63.5,77.9329966 63.5,76 C63.5,74.0670034 65.0670034,72.5 67,72.5 Z M66.2,74.1737034 C66.1079525,74.1737034 66.0304286,74.2358861 66.0071442,74.3205355 L66,74.3737034 L66,77.6262966 C66,77.6657816 66.0116876,77.7043831 66.0335899,77.7372366 C66.0826063,77.8107612 66.1718809,77.8413604 66.2526858,77.8192886 L66.31094,77.7927066 L68.7503849,76.1664101 C68.7723554,76.1517631 68.791208,76.1329105 68.8058549,76.11094 C68.8548713,76.0374154 68.8487803,75.9432393 68.7973276,75.8771393 L68.7503849,75.8335899 L66.31094,74.2072934 C66.2780865,74.185391 66.239485,74.1737034 66.2,74.1737034 Z M67.5,46.7894737 C61.7620787,46.7894737 58.3991395,49.3083558 57.0076336,54.6644163 L56.9457397,54.9098287 L56.875,55.2084211 L56.875,61.9473684 L60.625,61.947 L60.625,63.9298947 L56.875,65.1934445 L56.875,67.7833552 L58.4375,68.8421053 L56.25,68.8421053 L56.249988,70.1450613 C55.7108606,70.2852895 55.3125,70.7798446 55.3125,71.3684211 C55.3125,72.0660439 55.8721441,72.6315789 56.5625,72.6315789 C57.2528559,72.6315789 57.8125,72.0660439 57.8125,71.3684211 C57.8125,70.8253303 57.4733316,70.3622903 56.9973637,70.1838005 L56.8756388,70.1452245 L56.875,69.4736842 L59.0625,69.4736842 L59.0625,68.7429606 L57.5,67.4793684 L57.5,65.6484211 L61.25,64.3855029 L61.25,61.947 L64.375,61.947 L64.375,65.1823158 L62.1875,65.8144311 L62.1875,67.9473684 L65,67.9473684 L65,68.5263158 L62.9748047,68.5263158 L61.717378,70.1148637 C61.6666317,70.1085267 61.614943,70.1052632 61.5625,70.1052632 C60.8721441,70.1052632 60.3125,70.6707982 60.3125,71.3684211 C60.3125,72.0660439 60.8721441,72.6315789 61.5625,72.6315789 C62.2528559,72.6315789 62.8125,72.0660439 62.8125,71.3684211 C62.8125,71.0100093 62.6647815,70.6864623 62.427511,70.4565587 L62.3205104,70.3639333 L63.275,69.1578947 L65.625,69.1578947 L65.625,67.3157895 L62.8125,67.3157895 L62.8125,66.2901053 L65,65.6592531 L65,61.947 L68.749,61.947 L68.75,65.8947368 L67.5,66.8421053 L67.5,68.3212993 L68.7503088,69.9009652 C68.5556363,70.1236827 68.4375,70.4163211 68.4375,70.7368421 C68.4375,71.4344649 68.9971441,72 69.6875,72 C70.3778559,72 70.9375,71.4344649 70.9375,70.7368421 C70.9375,70.0392193 70.3778559,69.4736842 69.6875,69.4736842 C69.5897189,69.4736842 69.4945602,69.4850297 69.4032425,69.506489 L69.2692991,69.5461094 L68.125,68.1 L68.125,67.1578947 L69.375,66.2105263 L69.374,61.947 L71.875,61.947 L71.875,66.6638589 L76.5625,66.9791579 L76.5625,68.0673684 L75.3125,68.6995682 L75.3124547,69.0111198 C74.9388538,69.2295322 74.6875,69.6377353 74.6875,70.1052632 C74.6875,70.802886 75.2471441,71.3684211 75.9375,71.3684211 C76.6278559,71.3684211 77.1875,70.802886 77.1875,70.1052632 C77.1875,69.4902012 76.7524809,68.9778128 76.1763994,68.8651491 C76.1407093,68.8581692 76.2912646,68.7910262 76.6280651,68.6637202 L77.1875,68.4583265 L77.1875,66.3887727 L72.5,66.0728421 L72.5,61.947 L78.125,61.9473684 L78.125,55.2115789 L78.0533697,54.9061913 C76.7411394,49.5490544 73.5235092,46.9470762 68.0152704,46.7964263 L67.7553925,46.7911589 L67.5,46.7894737 Z M56.5625,70.7368421 C56.907678,70.7368421 57.1875,71.0196096 57.1875,71.3684211 C57.1875,71.7172325 56.907678,72 56.5625,72 C56.217322,72 55.9375,71.7172325 55.9375,71.3684211 C55.9375,71.0196096 56.217322,70.7368421 56.5625,70.7368421 Z M61.5625,70.7368421 C61.6353653,70.7368421 61.7053182,70.7494425 61.7703414,70.7726047 L61.8639267,70.8150144 L61.9238043,70.8649149 C62.0861163,70.9724323 62.1875,71.1584623 62.1875,71.3684211 C62.1875,71.7172325 61.907678,72 61.5625,72 C61.217322,72 60.9375,71.7172325 60.9375,71.3684211 C60.9375,71.0196096 61.217322,70.7368421 61.5625,70.7368421 Z M69.6875,70.1052632 C70.032678,70.1052632 70.3125,70.3880307 70.3125,70.7368421 C70.3125,71.0856535 70.032678,71.3684211 69.6875,71.3684211 C69.342322,71.3684211 69.0625,71.0856535 69.0625,70.7368421 C69.0625,70.3880307 69.342322,70.1052632 69.6875,70.1052632 Z M75.9375,69.4736842 C76.282678,69.4736842 76.5625,69.7564517 76.5625,70.1052632 C76.5625,70.4540746 76.282678,70.7368421 75.9375,70.7368421 C75.592322,70.7368421 75.3125,70.4540746 75.3125,70.1052632 C75.3125,69.7564517 75.592322,69.4736842 75.9375,69.4736842 Z" fill="#A28670"></path>
    </g>
</svg>

<svg xmlns="http://www.w3.org/2000/svg" viewBox="0 0 134 134">
  <path
    d="M67.5 43c7.664 0 12.57 3.894 14.273 11.331l.102.464v7.152h.625c1.38 0 2.5 1.131 2.5 2.527v24C85 89.869 83.88 91 82.5 91H71.562v-2.28l3.75-.947v-2.268l-1.562-.947v-.769h2.188v-.987c.539-.14.937-.635.937-1.223 0-.698-.56-1.263-1.25-1.263s-1.25.565-1.25 1.263c0 .543.34 1.006.816 1.185l.121.038v.356h-2.187v1.758l1.563.947v1.416l-3.75.948L70.936 91h-3.125v-3.868l2.188-.63v-1.134h-2.5V83.76l3.125-.315v-.642c.54-.14.938-.635.938-1.223 0-.698-.56-1.263-1.25-1.263s-1.25.565-1.25 1.263c0 .543.339 1.006.815 1.185l.122.038v.07l-3.125.316V86h2.5v.024l-2.188.633V91h-3.75v-3.947l1.25-.948V83.86l-1.25-.316.001-.11c.539-.14.937-.634.937-1.222 0-.698-.56-1.264-1.25-1.264s-1.25.566-1.25 1.264c0 .543.34 1.006.816 1.184l.121.039v.602l1.25.316v1.437l-1.25.948V91h-2.5v-4.346l-3.437-.948v-2.272c.54-.14.938-.635.938-1.223 0-.698-.56-1.264-1.25-1.264s-1.25.566-1.25 1.264c0 .543.339 1.006.815 1.184l.122.039v2.755l3.438.947L59.687 91H52.5c-1.38 0-2.5-1.131-2.5-2.526v-24c0-1.396 1.12-2.527 2.5-2.527h.625v-7.152l.102-.464C54.93 46.894 59.837 43 67.5 43zm-4.375 38.579c.345 0 .625.283.625.632 0 .348-.28.631-.625.631a.628.628 0 01-.625-.631c0-.35.28-.632.625-.632zm-6.563 0c.346 0 .626.283.626.632 0 .348-.28.631-.626.631a.628.628 0 01-.624-.631c0-.35.28-.632.624-.632zm19.063-.632c.345 0 .625.283.625.632 0 .349-.28.632-.625.632a.628.628 0 01-.625-.632c0-.349.28-.632.625-.632zm-5.313 0c.346 0 .626.283.626.632 0 .349-.28.632-.626.632a.628.628 0 01-.624-.632c0-.349.28-.632.624-.632zM67 71.5a4.5 4.5 0 100 9 4.5 4.5 0 000-9zm0 1a3.5 3.5 0 110 7 3.5 3.5 0 010-7zm-.8 1.674a.2.2 0 00-.193.147l-.007.053v3.252a.2.2 0 00.253.193l.058-.026 2.44-1.627a.2.2 0 00.046-.289l-.047-.043-2.44-1.627a.2.2 0 00-.11-.033zm1.3-27.385c-5.738 0-9.1 2.52-10.492 7.875l-.062.246-.071.298v6.74l3.75-.001v1.983l-3.75 1.263v2.59l1.563 1.06H56.25v1.302c-.54.14-.938.635-.938 1.223 0 .698.56 1.264 1.25 1.264s1.25-.566 1.25-1.264c0-.543-.339-1.006-.815-1.184l-.121-.039-.001-.671h2.188v-.731L57.5 67.479v-1.83l3.75-1.263v-2.439h3.125v3.235l-2.188.632v2.133H65v.58h-2.025l-1.258 1.588a1.25 1.25 0 00-1.404 1.253c0 .698.56 1.264 1.25 1.264s1.25-.566 1.25-1.264c0-.358-.148-.682-.385-.911l-.107-.093.954-1.206h2.35v-1.842h-2.813V66.29L65 65.66v-3.713h3.749l.001 3.948-1.25.947v1.48l1.25 1.579a1.266 1.266 0 00-.313.836c0 .697.56 1.263 1.25 1.263s1.25-.566 1.25-1.263a1.257 1.257 0 00-1.534-1.23l-.134.04-1.144-1.447v-.942l1.25-.947-.001-4.264h2.501v4.717l4.688.315v1.088l-1.25.633v.311a1.265 1.265 0 00-.626 1.094c0 .698.56 1.263 1.25 1.263s1.25-.565 1.25-1.263a1.26 1.26 0 00-1.01-1.24c-.036-.007.114-.074.451-.201l.56-.206v-2.07l-4.688-.315v-4.126h5.625v-6.735l-.072-.306c-1.312-5.357-4.53-7.959-10.038-8.11l-.26-.005-.255-.002zM56.562 70.737c.346 0 .626.283.626.631 0 .35-.28.632-.626.632a.628.628 0 01-.624-.632c0-.348.28-.631.624-.631zm5 0c.073 0 .143.012.208.036l.094.042.06.05a.599.599 0 01.264.503c0 .35-.28.632-.626.632a.628.628 0 01-.624-.632c0-.348.28-.631.624-.631zm8.126-.632c.345 0 .624.283.624.632 0 .349-.28.631-.624.631a.628.628 0 01-.626-.631c0-.349.28-.632.626-.632zm6.25-.631c.345 0 .624.282.624.631 0 .35-.28.632-.624.632a.628.628 0 01-.626-.632c0-.349.28-.631.626-.631z"
    fill="#A28670" fill-rule="evenodd" opacity=".617" />
</svg>
